X:1
T:Petticoats Of Portugal
T:Petticoats Of Portugal
T:Rapariga Do Portugal
T:Michael Durso, Mel Mitchell & Murl Kahn
C:Michael Durso, Mel Mitchell & Murl Kahn
Z:All Rights Reserved
L:1/8
M:2/2
K:G
V:1 treble 
%%MIDI program 40
%%MIDI control 7 100
%%MIDI control 10 64
V:1
 z"G""^Tango tempo" D/D/DD EDFD |"Eb7" z _E/E/EE =FEGE |"Am7" z G/G/GG AGBG |"D7" A z D2 B3 F || %4
w: |||* When breez- es|
"G6" ED/D/DD EDFD | E2 DE"Bbdim" FFED |"Am" EA/A/AA"C+" _AA"Am7"GG |"D7" F z D2 c3 F | %8
w: blow * * * * * * * *|* PET- TI- COATS OF PORT- U-|GAL, * * * * * * * *|* There's quite a|
"Am" EA/A/AA"C+" _AA"Am7"GG |"D7" F z DE"D+7" FFED |"G6" EA/A/AA GF"D7"E_E |"G" D z D2 G2 B2 | %12
w: show * * * * * * * *|* On the streets of Port- u-|gal; * * * * * * * *|* Each pass- er-|
"Dm6" d4 B2 A2 |"E7" ^G4 (3G2 A2 B2 |"Am" cA/A/AA"C+" _AA"Am7"GG |"D7" F z D2 F2 A2 | %16
w: by winks his|eye whis- tles and|smiles, * * * * * * * *|* The ooh's and|
"Am7" c4 A2 G2 |"D7" F4 (3F2 G2 A2 |"G" BD/D/DD"G#dim" ED=FD |"D7" F z D2 B3 F |"G6" ED/D/DD EDFD | %21
w: ah's, loud hur-|rahs, ech- o for|miles; * * * * * * * *|* Those shape- ly|gams * * * * * * * *|
 EDDE"Bbdim" FFED |"Am" EA/A/AA"C+" _AA"Am7"GG |"D7" F z D2 c3 F |"Am" EA/A/AA"C+" _AA"Am7"GG | %25
w: * neath PET- TI- COATS OF PORT- U-|GAL, * * * * * * * *|* Start traf- fic|jams, * * * * * * * *|
"D7" F z DE (3F2 G2 A2 |"Dm6" d4 B2 A2 |"E7" ^G4 (3B2 c2 d2 |"Am" d3 c c3 B |"Cm6" d3 c c3 A | %30
w: * But the cop on the|square does- nt|care! There ain't a|male a- live who|does- n't thrive on|
"G" c3 B A2 G2 |"A9" B2 z A G2 F2 |"Am" EA/A/AA _AAGG |"D7" FDDF AcAF |"G" GD/D/DD EDFD | %35
w: watch- ing skirts blow|free! Es- pe- cial-|ly * * * * * * * *|* the PET- TI- COATS OF PORT- U-|GAL.- * * * * * * * *|
"Eb7" z _E/E/EE =F=EGE |"Am7" z G/G/GG AG"D7"BF |"^G" G4 d4 |] %38
w: |||

